X: 1
T: L\aangt ner i Sm\aaland
C: Roger Tallroth
R: shottish
S: http://www.nyckelharpa.org/archive/written-music/american-allspel-list/ 2022/9/23
Z: 2022 John Chambers <jc:trillian.mit.edu>
M: 2/4
L: 1/16
Q: 1/4=72
K: Ddor
|:\
D>AA>A B2A2 | G>BB>B c2Bd- | d>ed>c A>Bc2 | B>AG2 F4 ||\
D>AA>A B2A2 | G>BB>B c2B2- | B2G2 F>GF>D | (C2D2) D4 :|
|:\
A>^FA2 B2d2 | e>dc2 d3A- | A2A2 G>AB2 | c>BG2 A4 ||\
A>^FA2 B2d2 | c>BG2 F4- | F2F2 E>FE>D | (C2D2) D4 :|
